/* XPM */
/* This file can be converted to EPS by the GROMACS program xpm2ps */
/* title:   "Entropy Landscape" */
/* legend:  "TDS (kJ/mol)" */
/* x-label: "PC1" */
/* y-label: "PC2" */
/* type:    "Continuous" */
static char *gromacs_xpm[] = {
"32 32   25 1",
"A  c #000000 " /* "0" */,
"B  c #0B0B0B " /* "0.45" */,
"C  c #151515 " /* "0.9" */,
"D  c #202020 " /* "1.35" */,
"E  c #2B2B2B " /* "1.8" */,
"F  c #353535 " /* "2.25" */,
"G  c #404040 " /* "2.7" */,
"H  c #4A4A4A " /* "3.15" */,
"I  c #555555 " /* "3.6" */,
"J  c #606060 " /* "4.05" */,
"K  c #6A6A6A " /* "4.5" */,
"L  c #757575 " /* "4.95" */,
"M  c #808080 " /* "5.4" */,
"N  c #8A8A8A " /* "5.85" */,
"O  c #959595 " /* "6.3" */,
"P  c #9F9F9F " /* "6.75" */,
"Q  c #AAAAAA " /* "7.2" */,
"R  c #B5B5B5 " /* "7.65" */,
"S  c #BFBFBF " /* "8.1" */,
"T  c #CACACA " /* "8.55" */,
"U  c #D5D5D5 " /* "9" */,
"V  c #DFDFDF " /* "9.45" */,
"W  c #EAEAEA " /* "9.9" */,
"X  c #F4F4F4 " /* "10.3" */,
"Y  c #FFFFFF " /* "10.8" */,
/* x-axis:  -8.58757 -8.04977 -7.51197 -6.97417 -6.43637 -5.89857 -5.36076 -4.82296 -4.28516 -3.74736 -3.20956 -2.67176 -2.13396 -1.59615 -1.05835 -0.520552 0.0172498 0.555051 1.09285 1.63065 2.16846 2.70626 3.24406 3.78186 4.31966 4.85746 5.39526 5.93306 6.47087 7.00867 7.54647 8.08427 8.62207 */
/* y-axis:  -13.2947 -12.4489 -11.6031 -10.7572 -9.91136 -9.06551 -8.21966 -7.37381 -6.52796 -5.68212 -4.83627 -3.99042 -3.14457 -2.29872 -1.45288 -0.607028 0.23882 1.08467 1.93052 2.77636 3.62221 4.46806 5.31391 6.15976 7.0056 7.85145 8.6973 9.54315 10.389 11.2348 12.0807 12.9265 13.7724 */
"YYYYYYYAAYYYYYYYYYYYYYYYYYAAYYYY",
"YYYYYYYAMGEYYYYYYYYYYYYYGILJYYYY",
"YYYYYAAJSRQMEYAYYYAALEYGLSRQGYEA",
"YYYYYYILQTSSOLAEYYANPOMLRPSRMKLA",
"YYYYYYIKQPTSRLAAYILLSPSPNQPNNLYA",
"YYYYYGGMNLRPRMIEAINOPSPOMLLLJAAY",
"YYYYEAGNQPNOQGAYYYAJNLIGIALJJAYY",
"YYYYYGKQPRPNPAYYYYYYEAAAEAGEEAYY",
"YYYYYJNMLKPNMGEAYYYYYYYAYYYYYYYY",
"YYYYYYYILLQRLEGYYYYYYYYYYYAYYYYY",
"YYYYYYYAIEAEJIAYYYYYYYYYYYYYYYYY",
"YYYYYYYYYEGLIJAYYYYYYYYYYYYYYYYY",
"YYYYYYYYIAIIOMYYYYYYYYYYYYYYYYYY",
"YYYYYYYEGEIKEYEYYYYYYYYYYYYYYYYY",
"YYYYYYEEYGIAEYYYYYYAYYYYYYYYYYYY",
"YYYYYYYEKMAGKGAGENLJAYYYYYYYYYYY",
"YYYYYYYYEGGEJLJLNRSQNIYYYYYYYYYY",
"YYYYYYYYYYAAAJOLNOQRSOYAYYYYYYYY",
"YYYYYYYAEJAYYEGGNLLOOIYAYYYYYYYY",
"GEEGGAEKNIYYYYYGMLILKYYYYYYYYYYY",
"AAKLOJILNNGYEYYGLPKYYAYYYYYYYYYY",
"YEMPSOPNNIJEMEANPRMLGGYYYYYYYYYY",
"YAAMIPOLQOONNNKLLNPRRQNEYYYYYYYY",
"YYYIYAMNOLRQLNRPLQPSTURLAYYYYYYY",
"YYYYYYYLKLNLOOSSSTQSSRQNAYYYYYYY",
"YYYYYYYYYYEIMPSSVURQOQKJEEYYYYYY",
"YYYYYYYYYYYIAGPTVWUTLKYAYYYYYYYY",
"YYYYYYYYYYYYYYYJSUUTTLGAYYYYYYYY",
"YYYYYYYYYYYYYYYEKPPSRRMIYYYYYYYY",
"YYYYYYYYYYYYYYYYYYEKNKLEYYYYYYYY",
"YYYYYYYYYYYYYYYYYYYYKIEYYYYYYYYY",
"YYYYYYYYYYYYYYYYYYYYYYEYYYYYYYYY"
