/* XPM */
/* This file can be converted to EPS by the GROMACS program xpm2ps */
/* title:   "Probability Distribution" */
/* legend:  "" */
/* x-label: "PC1" */
/* y-label: "PC2" */
/* type:    "Continuous" */
static char *gromacs_xpm[] = {
"32 32   25 1",
"A  c #000000 " /* "0" */,
"B  c #0B0B0B " /* "0.000542" */,
"C  c #151515 " /* "0.00108" */,
"D  c #202020 " /* "0.00162" */,
"E  c #2B2B2B " /* "0.00217" */,
"F  c #353535 " /* "0.00271" */,
"G  c #404040 " /* "0.00325" */,
"H  c #4A4A4A " /* "0.00379" */,
"I  c #555555 " /* "0.00433" */,
"J  c #606060 " /* "0.00487" */,
"K  c #6A6A6A " /* "0.00542" */,
"L  c #757575 " /* "0.00596" */,
"M  c #808080 " /* "0.0065" */,
"N  c #8A8A8A " /* "0.00704" */,
"O  c #959595 " /* "0.00758" */,
"P  c #9F9F9F " /* "0.00812" */,
"Q  c #AAAAAA " /* "0.00866" */,
"R  c #B5B5B5 " /* "0.00921" */,
"S  c #BFBFBF " /* "0.00975" */,
"T  c #CACACA " /* "0.0103" */,
"U  c #D5D5D5 " /* "0.0108" */,
"V  c #DFDFDF " /* "0.0114" */,
"W  c #EAEAEA " /* "0.0119" */,
"X  c #F4F4F4 " /* "0.0125" */,
"Y  c #FFFFFF " /* "0.013" */,
/* x-axis:  -8.58757 -8.04977 -7.51197 -6.97417 -6.43637 -5.89857 -5.36076 -4.82296 -4.28516 -3.74736 -3.20956 -2.67176 -2.13396 -1.59615 -1.05835 -0.520552 0.0172498 0.555051 1.09285 1.63065 2.16846 2.70626 3.24406 3.78186 4.31966 4.85746 5.39526 5.93306 6.47087 7.00867 7.54647 8.08427 8.62207 */
/* y-axis:  -13.2947 -12.4489 -11.6031 -10.7572 -9.91136 -9.06551 -8.21966 -7.37381 -6.52796 -5.68212 -4.83627 -3.99042 -3.14457 -2.29872 -1.45288 -0.607028 0.23882 1.08467 1.93052 2.77636 3.62221 4.46806 5.31391 6.15976 7.0056 7.85145 8.6973 9.54315 10.389 11.2348 12.0807 12.9265 13.7724 */
"AAAAAAAAAAAAAAAAAAAAAAAAAAAAAAAA",
"AAAAAAAAEBBAAAAAAAAAAAAABCECAAAA",
"AAAAAAACLJJEBAAAAAAAEBABDLJIBABA",
"AAAAAACEJPMMGEABAAAFHGEEKHMJEDDA",
"AAAAAACDIHPMKEAAACDEMGMHFJHFFDAA",
"AAAAABBEFDLHKECBACFGGLGGEDEDCAAA",
"AAAABABFIHFGIBAAAAACFECBCAECCAAA",
"AAAAABDJHJHFHAAAAAAABAAABABBBAAA",
"AAAAACFEDDHFEBBAAAAAAAAAAAAAAAAA",
"AAAAAAACEDIKEBBAAAAAAAAAAAAAAAAA",
"AAAAAAAACBABCCAAAAAAAAAAAAAAAAAA",
"AAAAAAAAABBDCCAAAAAAAAAAAAAAAAAA",
"AAAAAAAACACCGEAAAAAAAAAAAAAAAAAA",
"AAAAAAABBBCDBABAAAAAAAAAAAAAAAAA",
"AAAAAABBABCABAAAAAAAAAAAAAAAAAAA",
"AAAAAAABDEABDBABBFDCAAAAAAAAAAAA",
"AAAAAAAABBBBCECDFKLJFCAAAAAAAAAA",
"AAAAAAAAAAAAACGDFGIJMGAAAAAAAAAA",
"AAAAAAAABCAAABBBFEDGGCAAAAAAAAAA",
"BBBBBABDFCAAAAABEDCEDAAAAAAAAAAA",
"AADEGCCDFFBABAABDHDAAAAAAAAAAAAA",
"ABEHMGHFFCCBEBAFHJEDBBAAAAAAAAAA",
"AAAECHGEJGGFFFDDDFHKJIFBAAAAAAAA",
"AAACAAEFGDLIEFKHDIHMPQJDAAAAAAAA",
"AAAAAAAEDDFEGGMNLNJLLLIFAAAAAAAA",
"AAAAAAAAAABCEHLNVRKIGIDCBBAAAAAA",
"AAAAAAAAAAACABHNUYSPEDAAAAAAAAAA",
"AAAAAAAAAAAAAAACNQSOOEBAAAAAAAAA",
"AAAAAAAAAAAAAAABDGHMLKECAAAAAAAA",
"AAAAAAAAAAAAAAAAAABDFDEBAAAAAAAA",
"AAAAAAAAAAAAAAAAAAAADCBAAAAAAAAA",
"AAAAAAAAAAAAAAAAAAAAAABAAAAAAAAA"
