/* XPM */
/* This file can be converted to EPS by the GROMACS program xpm2ps */
/* title:   "Gibbs Energy Landscape" */
/* legend:  "G (kJ/mol)" */
/* x-label: "PC1" */
/* y-label: "PC2" */
/* type:    "Continuous" */
static char *gromacs_xpm[] = {
"32 32   25 1",
"A  c #000000 " /* "0" */,
"B  c #0B0B0B " /* "0.452" */,
"C  c #151515 " /* "0.904" */,
"D  c #202020 " /* "1.36" */,
"E  c #2B2B2B " /* "1.81" */,
"F  c #353535 " /* "2.26" */,
"G  c #404040 " /* "2.71" */,
"H  c #4A4A4A " /* "3.16" */,
"I  c #555555 " /* "3.61" */,
"J  c #606060 " /* "4.07" */,
"K  c #6A6A6A " /* "4.52" */,
"L  c #757575 " /* "4.97" */,
"M  c #808080 " /* "5.42" */,
"N  c #8A8A8A " /* "5.87" */,
"O  c #959595 " /* "6.32" */,
"P  c #9F9F9F " /* "6.78" */,
"Q  c #AAAAAA " /* "7.23" */,
"R  c #B5B5B5 " /* "7.68" */,
"S  c #BFBFBF " /* "8.13" */,
"T  c #CACACA " /* "8.58" */,
"U  c #D5D5D5 " /* "9.04" */,
"V  c #DFDFDF " /* "9.49" */,
"W  c #EAEAEA " /* "9.94" */,
"X  c #F4F4F4 " /* "10.4" */,
"Y  c #FFFFFF " /* "10.8" */,
/* x-axis:  -13.2947 -12.4489 -11.6031 -10.7572 -9.91136 -9.06551 -8.21966 -7.37381 -6.52796 -5.68212 -4.83627 -3.99042 -3.14457 -2.29872 -1.45288 -0.607028 0.23882 1.08467 1.93052 2.77636 3.62221 4.46806 5.31391 6.15976 7.0056 7.85145 8.6973 9.54315 10.389 11.2348 12.0807 12.9265 13.7724 */
/* y-axis:  -9.86426 -9.30452 -8.74478 -8.18504 -7.6253 -7.06556 -6.50582 -5.94608 -5.38634 -4.8266 -4.26686 -3.70712 -3.14738 -2.58764 -2.0279 -1.46816 -0.90842 -0.34868 0.21106 0.7708 1.33054 1.89028 2.45002 3.00976 3.5695 4.12924 4.68898 5.24872 5.80846 6.3682 6.92794 7.48768 8.04742 */
"YYYYYYYYYYYYYYYYYYYYYYYYYYYYWYYY",
"YYYYYYYYYYYYYYYYYYYYYYYYYWYYYYYY",
"YYYYYYYYYYYYYYYYYYYYYYWYQOQKIQWY",
"YYYYYYYYOQLSYYYYYYYYYYYWQJMJJYYY",
"YYYYYYYSJIFHOSYYYYYYYYYYNNKGHMYY",
"YYYYYSNGECCFIMWYYYYYYYYYYWLJFHSY",
"YYYYSOIEBBBFGWYYYYYYYYYYSQYLFGLW",
"YYYYMFDECEKKSYYYYYYYYYYYYSSJJIMY",
"YYYNDBBDLKWYYYYYYYYYYYYYYYJFFIOW",
"YYYKDABGLSYYYYYYYYYYYYYYWQFEGIYY",
"YYWKFEDDKSYYYYYYYYYYYYYYWKHFHJYY",
"YYOHHIIHGSYYYYYYYYYYYYYYYJDEHWYY",
"YSODDFNLQSYYYYYYYYYYYYYYSGDHSYQY",
"WLGEEFMSYYYYYYYYYYYYYYYYWKHGKQQW",
"WQLFJJKOWWYYYYYYYYYYYYYYOLGEHJQY",
"YYWSNMKISSQYYYYYYYYYYWSNMOIFCHQW",
"YYYYYMLIOWNYWYYYYYYYWWJHKLJEEGWY",
"YYYYSYSKKJMSYYYYYYYQWOFICGFFDFYY",
"YYYYSWOOMQWYYYYYYYQKLOGEEEGHIJSY",
"YYYYWSQNJOWYYYYYYYWMMKIHGKKYOWYY",
"YYYYYQMNIJYYYYYYYYYQWYMOOSYYYYYY",
"YYYYYYLIFHWYYYYYYYYSWYWYYYYYYYYY",
"YYYYYYQIDGWYYYYWWYSSSYYYYYYYYYYY",
"YYYYYYLDEJOWYYYWSSSYSWYYYYYYYYYY",
"YYYYYYQMJKWSYYYOKSSQYYYYYYYYYYYY",
"YYYYYYYQNLFKOQSMKQKLWYYYYYYYYYYY",
"YYYYYYYWSNGJKKHJJNQYYYYYYYYYYYYY",
"YYYYYYYWONNKIIDCJWYYYYYYYYYYYYYY",
"YYYYYYYYYWYWNFCCJSYYYYYYYYYYYYYY",
"YYYYYYYYYYYYQHDFKYYYYYYYYYYYYYYY",
"YYYYYYYYYYYYSSNMWYYYYYYYYYYYYYYY",
"YYYYYYYYYYYYYYSWYYYYYYYYYYYYYYYY"
